src/dsmComponents/Icons/edit-2-12px.svg

<?xml version="1.0" encoding="UTF-8"?>
<svg width="12px" height="12px" viewBox="0 0 12 12" version="1.1" xmlns="http://www.w3.org/2000/svg" xmlns:xlink="http://www.w3.org/1999/xlink">
    <!-- Generator: Sketch 59.1 (86144) - https://sketch.com -->
    <title>edit-2-12px</title>
    <desc>Created with Sketch.</desc>
    <defs>
        <path d="M6.075,2.625 L9.375,5.925 L3.525,11.775 C3.375,11.925 3.225,12 3,12 L3,12 L0.75,12 C0.3,12 0,11.7 0,11.25 L0,11.25 L0,9 C0,8.775 0.075,8.625 0.225,8.475 L0.225,8.475 L6.075,2.625 Z M8.475,0.225 C8.775,-0.075 9.225,-0.075 9.525,0.225 L9.525,0.225 L11.775,2.475 C12.075,2.775 12.075,3.225 11.775,3.525 L11.775,3.525 L10.425,4.875 L7.125,1.575 Z" id="path-1"></path>
    </defs>
    <g id="Final" stroke="none" stroke-width="1" fill="none" fill-rule="evenodd">
        <g id="All-Nucleo-Icons" transform="translate(-174.000000, -2971.000000)">
            <g id="Solo/Nucleo/12px/edit-2" transform="translate(168.000000, 2965.000000)">
                <g id="pen-01" transform="translate(6.000000, 6.000000)">
                    <g id="Colour/Default-Colour">
                        <mask id="mask-2" fill="white">
                            <use xlink:href="#path-1"></use>
                        </mask>
                        <g id="Mask" fill-rule="nonzero"></g>
                        <g id="colour/neutral/chia" mask="url(#mask-2)" fill="#737373">
                            <g transform="translate(-18.000000, -18.000000)" id="Colour">
                                <rect x="0" y="0" width="48" height="48"></rect>
                            </g>
                        </g>
                    </g>
                </g>
            </g>
        </g>
    </g>
</svg>

<svg width="12" height="12" xmlns="http://www.w3.org/2000/svg" xmlns:xlink="http://www.w3.org/1999/xlink"><defs><path d="M6.075 2.625l3.3 3.3-5.85 5.85A.68.68 0 013 12H.75C.3 12 0 11.7 0 11.25V9a.68.68 0 01.225-.525l5.85-5.85zm2.4-2.4c.3-.3.75-.3 1.05 0l2.25 2.25c.3.3.3.75 0 1.05l-1.35 1.35-3.3-3.3z" id="edit-2-12px_svg__a"/></defs><use fill="#737373" xlink:href="#edit-2-12px_svg__a" fill-rule="evenodd"/></svg>
